X:1
%
T:Larry O’Gaff [5]
M:6/8
L:1/8
R:Jig
S:Henry Hudson manuscript collection c. 1841 (Dublin, No. 290)
N:Hudson was a Dublin dentist and an early collector. He was
N:music editor of The Citizen or Dublin Monthly Magazine from
N:1841-1843.
N:”Dublin Ball and Luigan” (?)
F:  http://rarebooks.library.nd.edu/digital/bookreader/MSE_1434-2/#page/7/mode/1up
Z:AK/Fiddler’s Companion
K:D
A|ABc ddd|dcB AGF|GBG FAF|EFA B2A|
ABc ddd|dfd ecA|BdB AFD|{F}EDE D2||
A|ABc ddd|dcd ecA|Ace ecA|ABc d2A|
dfd cec|BdB AGF|GBG FAF|{F}EDE D2||

